dataset/io.github.quodlibet.ExFalso/icon.svg

<?xml version="1.0" encoding="UTF-8" standalone="no"?>
<svg
   width="128"
   height="128"
   version="1"
   id="svg566"
   xmlns:xlink="http://www.w3.org/1999/xlink"
   xmlns="http://www.w3.org/2000/svg"
   xmlns:svg="http://www.w3.org/2000/svg">
  <defs
     id="defs570">
    <linearGradient
       id="linearGradient871">
      <stop
         style="stop-color:#1b3455;stop-opacity:1;"
         offset="0"
         id="stop867" />
      <stop
         style="stop-color:#588bca;stop-opacity:1;"
         offset="0.40682855"
         id="stop875" />
      <stop
         style="stop-color:#1b3455;stop-opacity:1;"
         offset="0.81"
         id="stop877" />
      <stop
         style="stop-color:#457dc5;stop-opacity:1;"
         offset="1"
         id="stop881" />
    </linearGradient>
    <linearGradient
       xlink:href="#linearGradient871"
       id="linearGradient1710"
       x1="9.9643049"
       y1="65.96431"
       x2="118.0357"
       y2="65.96431"
       gradientUnits="userSpaceOnUse"
       gradientTransform="matrix(1.1103771,0,0,1.0918709,-7.064133,-6.024513)" />
  </defs>
  <path
     fill="#1ed760"
     d="m 124,66 v 0 C 124,33.339283 97.214281,6.999997 63.999996,6.999997 v 0 C 30.785714,6.999997 4.000002,33.339283 4.000002,66 v 0 c 0,32.66071 26.785712,59 59.999994,59 v 0 C 97.214281,125 124,98.66071 124,66 Z"
     id="path550-6"
     style="fill:url(#linearGradient1710);fill-opacity:1;stroke-width:2.12492" />
  <path
     fill="#1ed760"
     d="m 124,62.000001 v 0 c 0,-32.660714 -26.785724,-59 -60.000007,-59 v 0 c -33.214283,0 -59.9999946,26.339286 -59.9999946,59 v 0 C 3.9999984,94.660714 30.78571,121 63.999993,121 v 0 C 97.214276,121 124,94.660714 124,62.000001 Z"
     id="path550"
     style="fill:#3364a3;fill-opacity:1;stroke-width:2.12492" />
  <path
     style="fill:#ffffff;fill-opacity:1;fill-rule:evenodd;stroke:#ffffff;stroke-width:0.754592;stroke-linecap:butt;stroke-linejoin:miter;stroke-miterlimit:4;stroke-dasharray:none;stroke-opacity:1"
     d="m 24.16861,36.633388 c 9.87545,6.67065 7.529606,12.748682 14.084572,21.666391 6.082914,8.275658 13.548345,-0.430761 21.067138,4.747432 -4.726828,7.737686 -15.185059,2.746387 -17.319054,12.739459 -2.29949,10.768422 2.3944,15.406281 -3.868124,25.44998 6.783734,-9.710875 13.001605,-7.380639 22.070511,-13.826287 8.415843,-5.981592 -0.438112,-13.322628 4.827947,-20.71603 7.822198,4.658483 2.80518,14.934447 12.95531,17.030297 10.953371,2.261785 15.628307,-2.379313 25.84447,3.780175 C 93.953783,80.832686 96.363962,74.74538 89.807615,65.825742 83.732069,57.560156 76.24993,66.210419 68.740437,61.078271 73.477898,53.386344 83.891145,58.296038 86.022578,48.315302 88.322668,37.544508 83.602929,32.947441 89.866784,22.901546 83.081578,32.614508 76.891129,30.244518 67.820261,36.6916 c -8.40563,5.974256 0.4281,13.355234 -4.791004,20.739578 C 55.160355,52.783111 60.212363,42.535521 50.049879,40.437072 39.098971,38.175848 34.382456,42.791516 24.16861,36.633388 Z"
     id="path2106" />
</svg>

<svg xmlns="http://www.w3.org/2000/svg" xmlns:xlink="http://www.w3.org/1999/xlink" width="128" height="128"><defs><linearGradient id="a"><stop offset="0" style="stop-color:#1b3455;stop-opacity:1"/><stop offset=".407" style="stop-color:#588bca;stop-opacity:1"/><stop offset=".81" style="stop-color:#1b3455;stop-opacity:1"/><stop offset="1" style="stop-color:#457dc5;stop-opacity:1"/></linearGradient><linearGradient xlink:href="#a" id="b" x1="9.964" x2="118.036" y1="65.964" y2="65.964" gradientTransform="matrix(1.11038 0 0 1.09187 -7.064 -6.025)" gradientUnits="userSpaceOnUse"/></defs><path fill="#1ed760" d="M124 66c0-32.66-26.786-59-60-59S4 33.34 4 66s26.786 59 60 59 60-26.34 60-59" style="fill:url(#b);fill-opacity:1;stroke-width:2.12492"/><path fill="#1ed760" d="M124 62c0-32.66-26.786-59-60-59S4 29.34 4 62s26.786 59 60 59 60-26.34 60-59" style="fill:#3364a3;fill-opacity:1;stroke-width:2.12492"/><path d="M24.169 36.633c9.875 6.671 7.53 12.75 14.084 21.667 6.083 8.275 13.549-.431 21.067 4.747-4.727 7.738-15.185 2.747-17.319 12.74-2.3 10.768 2.395 15.406-3.868 25.45 6.784-9.711 13.002-7.381 22.07-13.827 8.416-5.981-.437-13.322 4.829-20.716 7.822 4.659 2.805 14.935 12.955 17.03 10.953 2.262 15.628-2.379 25.844 3.78-9.877-6.671-7.467-12.759-14.023-21.678-6.076-8.266-13.558.384-21.068-4.748 4.738-7.692 15.151-2.782 17.283-12.763 2.3-10.77-2.42-15.368 3.844-25.413-6.785 9.713-12.976 7.343-22.047 13.79-8.405 5.974.428 13.355-4.79 20.74-7.87-4.649-2.818-14.896-12.98-16.995-10.951-2.261-15.668 2.355-25.881-3.804Z" style="fill:#fff;fill-opacity:1;fill-rule:evenodd;stroke:#fff;stroke-width:.754592;stroke-linecap:butt;stroke-linejoin:miter;stroke-miterlimit:4;stroke-dasharray:none;stroke-opacity:1"/></svg>
